!!!!SEGMENT: Any1009e-Missa_Cueur_langoreulx-Agnus--Montserrat_766.krn
!!!id: Any1009e
!!!SMS: Montserrat 766
!!!AGN: Mass; Agnus
!!!voices: 5
!!!OPR: Missa Cueur langoreulx (Montserrat 766)
!!!COM: Anonymous
!!!OTL: Agnus
**kern	**kern	**kern	**kern	**kern
*part5	*part4	*part3	*part2	*part1
*staff5	*staff4	*staff3	*staff2	*staff1
*I"Bassus	*I"Tenor II	*I"Tenor I	*I"Altus	*I"Superius
*I'B	*I'T. II	*I'T. I	*I'A	*I'S
*clefF4	*clefGv2	*clefGv2	*clefGv2	*clefG2
*	*	*	*	*
*k[]	*k[]	*k[]	*k[]	*k[]
*C:	*C:	*C:	*C:	*C:
*M2/1	*M2/1	*M2/1	*M2/1	*M2/1
*met(C|)	*met(C|)	*met(C|)	*met(C|)	*met(C|)
=1	=1	=1	=1	=1
!!section: Agnus Dei I
!!!OMD: Agnus Dei I
!	!	!	!	!LO:TX:a:t=Canon&colon; superius/tenor II at the lower fifth
1A	0r	0r	2.A	0a
.	.	.	4B	.
2F	.	.	2c	.
2D	.	.	[2d	.
=2	=2	=2	=2	=2
1A	0r	0r	2d]	1a
.	.	.	2c	.
1D	.	.	1d	1a
=3	=3	=3	=3	=3
2.E	0r	2.G	2B	0g
.	.	.	2e	.
4F	.	4A	.	.
2G	.	2B	2d	.
2C	.	[2c	2c	.
=4	=4	=4	=4	=4
1G	0r	2c]	1d	1r
.	.	2B	.	.
1C	.	1c	1c	1g
=5	=5	=5	=5	=5
1r	0d	2F	0A	1a
.	.	2D	.	.
2.D	.	2.F	.	2d
.	.	.	.	[2a
4E	.	4G	.	.
=6	=6	=6	=6	=6
2F	1d	1A	1r	4a]
.	.	.	.	4g
2.D	.	.	.	4f
.	.	.	.	4e
.	1d	1D	2.A	1f
4E	.	.	.	.
4F	.	.	.	.
4G	.	.	4B	.
=7	=7	=7	=7	=7
1A	0c	1r	2c	0e
.	.	.	2.A	.
1AA	.	2r	.	.
.	.	.	4B	.
.	.	[2A	4c	.
.	.	.	4d	.
=8	=8	=8	=8	=8
0AA	1r	2A]	2e	0r
.	.	4G	2A	.
.	.	4F	.	.
.	1c	1E	1A	.
=9	=9	=9	=9	=9
1D	1d	2r	0r	0r
.	.	2D	.	.
2r	2G	2E	.	.
2D	[2d	2F	.	.
=10	=10	=10	=10	=10
2E	4d]	2G	0r	0r
.	4c	.	.	.
2F	4B	1A	.	.
.	4A	.	.	.
1E	1B	.	.	.
.	.	2G#i	.	.
=11	=11	=11	=11	=11
2AA	0A	1A	1.c	1.a
1A	.	.	.	.
.	.	1r	.	.
2G	.	.	2B	2b
=12	=12	=12	=12	=12
2F	0r	0r	2A	2cc
2D	.	.	2F	1dd
1E	.	.	1G	.
.	.	.	.	2cc#i
=13	=13	=13	=13	=13
0D	0r	1.F	2A	1dd
.	.	.	1d	.
.	.	.	.	2a
.	.	2G	2d	2b
=14	=14	=14	=14	=14
0r	0r	2A	2c	2cc
.	.	2D	2f	1dd
.	.	1A	1e	.
.	.	.	.	2cc#i
=15	=15	=15	=15	=15
0r	1.d	1D	2r	0dd
.	.	.	1d	.
.	.	2r	.	.
.	2e	2G	4c	.
.	.	.	4B	.
=16	=16	=16	=16	=16
0r	2f	2F	2A	0r
.	1g	2E	2G	.
.	.	1D	1A	.
.	2f#i	.	.	.
=17	=17	=17	=17	=17
1r	1g	1.d	2G	0r
.	.	.	2.B	.
1G	2d	.	.	.
.	.	.	4A	.
.	2e	4c	4B	.
.	.	4B	4c	.
=18	=18	=18	=18	=18
2F	2f	2A	2d	1r
2E	1g	2G	2c	.
1D	.	1A	1d	2r
.	2f#i	.	.	[2dd
=19	=19	=19	=19	=19
0GG	0g	[0G	1B	4dd]
.	.	.	.	4cc
.	.	.	.	4b
.	.	.	.	4a
.	.	.	2r	2b
.	.	.	2B	2g
=20	=20	=20	=20	=20
2r	0r	1G]	2.d	2.b
2G	.	.	.	.
.	.	.	4c	4cc
2D	.	2r	2B	2dd
2E	.	2G	2c	[2cc
=21	=21	=21	=21	=21
2F	0r	2A	2A	2cc]
1G	.	2B	2G	2b
.	.	2c	2r	1a
2F	.	[2d	2A	.
=22	=22	=22	=22	=22
2E	1r	4d]	2B	0g
.	.	4c	.	.
2C	.	1c	2c	.
1G	2r	.	1d	.
.	[2g	2B	.	.
=23	=23	=23	=23	=23
1C	4g]	2c	0c	1r
.	4f	.	.	.
.	4e	2.C	.	.
.	4d	.	.	.
1r	2e	.	.	1g
.	.	4D	.	.
.	2c	4E	.	.
.	.	4F	.	.
=24	=24	=24	=24	=24
1C	2.e	1G	2r	1.cc
.	.	.	1e	.
.	4f	.	.	.
2C	2g	2E	.	.
[2D	[2f	[2F	[2d	2b
=25	=25	=25	=25	=25
2D]	2f]	2F]	4d]	2a
.	.	.	4c	.
2E	2e	2G	2B	2g
1F	1d	1D	1A	1f
=26	=26	=26	=26	=26
1C	0c	1E	1G	0e
2.c	.	1C	2.A	.
4B	.	.	4G	.
=27	=27	=27	=27	=27
2A	1r	2.c	2F	0r
2G	.	.	2E	.
.	.	4B	.	.
2F	1c	2A	2F	.
2E	.	2G	2G	.
=28	=28	=28	=28	=28
2D	1.f	2.F	2.A	2r
2.F	.	.	.	1.cc
.	.	8EL	4B	.
.	.	8DJ	.	.
.	.	1A	1c	.
4E	.	.	.	.
2C	2e	.	.	.
=29	=29	=29	=29	=29
2G	2d	0r	1r	2b
2A	2c	.	.	1a
1E	1B	.	1e	.
.	.	.	.	2g#i
=30	=30	=30	=30	=30
1AA	0A	1.E	2c	2a
.	.	.	2A	1cc
2r	.	.	2.c	.
2AA	.	2E	.	2cc
.	.	.	8BL	.
.	.	.	8AJ	.
=31	=31	=31	=31	=31
2E	0r	2G	2G	2b
2F	.	2F	2A	1a
1E	.	1G	1B	.
.	.	.	.	2g
=32	=32	=32	=32	=32
2AA	2r	2E	2.A	[0al
1D	1.f	2F	.	.
.	.	.	4G	.
.	.	4D	4F	.
.	.	4E	4E	.
2D	.	4F	[2A	.
.	.	4G	.	.
=33	=33	=33	=33	=33
2C	2e	1A	2A]	0a_
2D	1d	.	4G	.
.	.	.	4F	.
1AA	.	2r	1E	.
.	2c#i	2A	.	.
=34	=34	=34	=34	=34
2D	2d	2F	2D	0a_
1D	1f	4D	1A	.
.	.	4E	.	.
.	.	4F	.	.
.	.	4G	.	.
2D	2f	[2A	2A	.
=35	=35	=35	=35	=35
2C	2e	2A]	2c	0a_
2D	1d	4G	2A	.
.	.	4F	.	.
1AA	.	1E	1c	.
.	2c	.	.	.
=36	=36	=36	=36	=36
[0Dl	[0dl	1.F	[0Al	0a_
.	.	2D	.	.
=37	=37	=37	=37	=37
0D]	0d]	0Dl	0A]	0a]
==	==	==	==	==
*-	*-	*-	*-	*-
!!!system-decoration: s1,s2,s3,s4,s5
!!!RDF**kern: i = editorial accidental
!!!RDF**kern: l = terminal long
!!!ENC: Maura Sugg
!!!END: 2026/6/28
!!!EED: Benjamin Ory
!!!EEV: 2026/06/29
!!!YEC: Copyright 2026 Benjamin Ory, All Rights Reserved
!!!ONB: Translated from MusicXML on 2026/06/29
!!!verovio: header encoded
!!!header-left: Edited by Zoe Saunders (2010)\n
!!!header-right:
!!!header-center:
!!muse2ps: T^@{OPR}^u^@{ONM}{. }@{OTL}^C^@{COM}^i2I150v90,90,90,90,120c120z18l2770t130
